dist/img/offices/floor-txt3.svg

<svg width="1073" height="73" viewBox="0 0 1073 73" fill="none" xmlns="http://www.w3.org/2000/svg">
<g clip-path="url(#clip0_187_1937)">
<rect width="1073" height="73" fill="#C01818" fill-opacity="0.8"/>
<path d="M382.359 30.2656C382.359 31.6927 381.927 32.9062 381.062 33.9062C380.198 34.9062 378.984 35.5938 377.422 35.9688V36.0625C379.266 36.2917 380.661 36.8542 381.609 37.75C382.557 38.6354 383.031 39.8333 383.031 41.3438C383.031 43.5417 382.234 45.2552 380.641 46.4844C379.047 47.7031 376.771 48.3125 373.812 48.3125C371.333 48.3125 369.135 47.901 367.219 47.0781V42.9688C368.104 43.4167 369.078 43.7812 370.141 44.0625C371.203 44.3438 372.255 44.4844 373.297 44.4844C374.891 44.4844 376.068 44.2135 376.828 43.6719C377.589 43.1302 377.969 42.2604 377.969 41.0625C377.969 39.9896 377.531 39.2292 376.656 38.7812C375.781 38.3333 374.385 38.1094 372.469 38.1094H370.734V34.4062H372.5C374.271 34.4062 375.562 34.1771 376.375 33.7188C377.198 33.25 377.609 32.4531 377.609 31.3281C377.609 29.599 376.526 28.7344 374.359 28.7344C373.609 28.7344 372.844 28.8594 372.062 29.1094C371.292 29.3594 370.432 29.7917 369.484 30.4062L367.25 27.0781C369.333 25.5781 371.818 24.8281 374.703 24.8281C377.068 24.8281 378.932 25.3073 380.297 26.2656C381.672 27.224 382.359 28.5573 382.359 30.2656ZM400.234 48H395.469V25.1562H408.562V29.125H400.234V35.0156H407.984V38.9688H400.234V48ZM417.422 48H412.656V23.6875H417.422V48ZM426.234 39.2344C426.234 40.9635 426.516 42.2708 427.078 43.1562C427.651 44.0417 428.578 44.4844 429.859 44.4844C431.13 44.4844 432.042 44.0469 432.594 43.1719C433.156 42.2865 433.438 40.974 433.438 39.2344C433.438 37.5052 433.156 36.2083 432.594 35.3438C432.031 34.4792 431.109 34.0469 429.828 34.0469C428.557 34.0469 427.641 34.4792 427.078 35.3438C426.516 36.1979 426.234 37.4948 426.234 39.2344ZM438.312 39.2344C438.312 42.0781 437.562 44.3021 436.062 45.9062C434.562 47.5104 432.474 48.3125 429.797 48.3125C428.12 48.3125 426.641 47.9479 425.359 47.2188C424.078 46.4792 423.094 45.4219 422.406 44.0469C421.719 42.6719 421.375 41.0677 421.375 39.2344C421.375 36.3802 422.12 34.1615 423.609 32.5781C425.099 30.9948 427.193 30.2031 429.891 30.2031C431.568 30.2031 433.047 30.5677 434.328 31.2969C435.609 32.026 436.594 33.0729 437.281 34.4375C437.969 35.8021 438.312 37.401 438.312 39.2344ZM446.047 39.2344C446.047 40.9635 446.328 42.2708 446.891 43.1562C447.464 44.0417 448.391 44.4844 449.672 44.4844C450.943 44.4844 451.854 44.0469 452.406 43.1719C452.969 42.2865 453.25 40.974 453.25 39.2344C453.25 37.5052 452.969 36.2083 452.406 35.3438C451.844 34.4792 450.922 34.0469 449.641 34.0469C448.37 34.0469 447.453 34.4792 446.891 35.3438C446.328 36.1979 446.047 37.4948 446.047 39.2344ZM458.125 39.2344C458.125 42.0781 457.375 44.3021 455.875 45.9062C454.375 47.5104 452.286 48.3125 449.609 48.3125C447.932 48.3125 446.453 47.9479 445.172 47.2188C443.891 46.4792 442.906 45.4219 442.219 44.0469C441.531 42.6719 441.188 41.0677 441.188 39.2344C441.188 36.3802 441.932 34.1615 443.422 32.5781C444.911 30.9948 447.005 30.2031 449.703 30.2031C451.38 30.2031 452.859 30.5677 454.141 31.2969C455.422 32.026 456.406 33.0729 457.094 34.4375C457.781 35.8021 458.125 37.401 458.125 39.2344ZM471.812 30.2031C472.458 30.2031 472.995 30.25 473.422 30.3438L473.062 34.8125C472.677 34.7083 472.208 34.6562 471.656 34.6562C470.135 34.6562 468.948 35.0469 468.094 35.8281C467.25 36.6094 466.828 37.7031 466.828 39.1094V48H462.062V30.5312H465.672L466.375 33.4688H466.609C467.151 32.4896 467.88 31.7031 468.797 31.1094C469.724 30.5052 470.729 30.2031 471.812 30.2031ZM483.359 41.375V37.4688H491.75V41.375H483.359ZM524.641 36.5469C524.641 40.3281 523.703 43.2344 521.828 45.2656C519.953 47.2969 517.266 48.3125 513.766 48.3125C510.266 48.3125 507.578 47.2969 505.703 45.2656C503.828 43.2344 502.891 40.3177 502.891 36.5156C502.891 32.7135 503.828 29.8125 505.703 27.8125C507.589 25.8021 510.286 24.7969 513.797 24.7969C517.307 24.7969 519.99 25.8073 521.844 27.8281C523.708 29.849 524.641 32.7552 524.641 36.5469ZM507.969 36.5469C507.969 39.099 508.453 41.0208 509.422 42.3125C510.391 43.6042 511.839 44.25 513.766 44.25C517.63 44.25 519.562 41.6823 519.562 36.5469C519.562 31.401 517.641 28.8281 513.797 28.8281C511.87 28.8281 510.417 29.4792 509.438 30.7812C508.458 32.0729 507.969 33.9948 507.969 36.5469ZM538.656 34.1094H534.531V48H529.766V34.1094H527.141V31.8125L529.766 30.5312V29.25C529.766 27.2604 530.255 25.8073 531.234 24.8906C532.214 23.974 533.781 23.5156 535.938 23.5156C537.583 23.5156 539.047 23.7604 540.328 24.25L539.109 27.75C538.151 27.4479 537.266 27.2969 536.453 27.2969C535.776 27.2969 535.286 27.5 534.984 27.9062C534.682 28.3021 534.531 28.8125 534.531 29.4375V30.5312H538.656V34.1094ZM551.047 34.1094H546.922V48H542.156V34.1094H539.531V31.8125L542.156 30.5312V29.25C542.156 27.2604 542.646 25.8073 543.625 24.8906C544.604 23.974 546.172 23.5156 548.328 23.5156C549.974 23.5156 551.438 23.7604 552.719 24.25L551.5 27.75C550.542 27.4479 549.656 27.2969 548.844 27.2969C548.167 27.2969 547.677 27.5 547.375 27.9062C547.073 28.3021 546.922 28.8125 546.922 29.4375V30.5312H551.047V34.1094ZM553.531 26.0156C553.531 24.4635 554.396 23.6875 556.125 23.6875C557.854 23.6875 558.719 24.4635 558.719 26.0156C558.719 26.7552 558.5 27.3333 558.062 27.75C557.635 28.1562 556.99 28.3594 556.125 28.3594C554.396 28.3594 553.531 27.5781 553.531 26.0156ZM558.5 48H553.734V30.5312H558.5V48ZM570.594 48.3125C565.156 48.3125 562.438 45.3281 562.438 39.3594C562.438 36.3906 563.177 34.125 564.656 32.5625C566.135 30.9896 568.255 30.2031 571.016 30.2031C573.036 30.2031 574.849 30.599 576.453 31.3906L575.047 35.0781C574.297 34.776 573.599 34.5312 572.953 34.3438C572.307 34.1458 571.661 34.0469 571.016 34.0469C568.536 34.0469 567.297 35.8073 567.297 39.3281C567.297 42.7448 568.536 44.4531 571.016 44.4531C571.932 44.4531 572.781 44.3333 573.562 44.0938C574.344 43.8438 575.125 43.4583 575.906 42.9375V47.0156C575.135 47.5052 574.354 47.8438 573.562 48.0312C572.781 48.2188 571.792 48.3125 570.594 48.3125ZM587.203 33.5938C586.193 33.5938 585.401 33.9167 584.828 34.5625C584.255 35.1979 583.927 36.1042 583.844 37.2812H590.531C590.51 36.1042 590.203 35.1979 589.609 34.5625C589.016 33.9167 588.214 33.5938 587.203 33.5938ZM587.875 48.3125C585.062 48.3125 582.865 47.5365 581.281 45.9844C579.698 44.4323 578.906 42.2344 578.906 39.3906C578.906 36.4635 579.635 34.2031 581.094 32.6094C582.562 31.0052 584.589 30.2031 587.172 30.2031C589.641 30.2031 591.562 30.9062 592.938 32.3125C594.312 33.7188 595 35.6615 595 38.1406V40.4531H583.734C583.786 41.8073 584.188 42.8646 584.938 43.625C585.688 44.3854 586.74 44.7656 588.094 44.7656C589.146 44.7656 590.141 44.6562 591.078 44.4375C592.016 44.2188 592.995 43.8698 594.016 43.3906V47.0781C593.182 47.4948 592.292 47.8021 591.344 48C590.396 48.2083 589.24 48.3125 587.875 48.3125ZM611.062 42.8125C611.062 44.6042 610.438 45.9688 609.188 46.9062C607.948 47.8438 606.089 48.3125 603.609 48.3125C602.339 48.3125 601.255 48.224 600.359 48.0469C599.464 47.8802 598.625 47.6302 597.844 47.2969V43.3594C598.729 43.776 599.724 44.125 600.828 44.4062C601.943 44.6875 602.922 44.8281 603.766 44.8281C605.495 44.8281 606.359 44.3281 606.359 43.3281C606.359 42.9531 606.245 42.651 606.016 42.4219C605.786 42.1823 605.391 41.9167 604.828 41.625C604.266 41.3229 603.516 40.974 602.578 40.5781C601.234 40.0156 600.245 39.4948 599.609 39.0156C598.984 38.5365 598.526 37.9896 598.234 37.375C597.953 36.75 597.812 35.9844 597.812 35.0781C597.812 33.526 598.411 32.3281 599.609 31.4844C600.818 30.6302 602.526 30.2031 604.734 30.2031C606.839 30.2031 608.885 30.6615 610.875 31.5781L609.438 35.0156C608.562 34.6406 607.745 34.3333 606.984 34.0938C606.224 33.8542 605.448 33.7344 604.656 33.7344C603.25 33.7344 602.547 34.1146 602.547 34.875C602.547 35.3021 602.771 35.6719 603.219 35.9844C603.677 36.2969 604.672 36.7604 606.203 37.375C607.568 37.9271 608.568 38.4427 609.203 38.9219C609.839 39.401 610.307 39.9531 610.609 40.5781C610.911 41.2031 611.062 41.9479 611.062 42.8125ZM621.875 39.2344C621.875 36.474 622.276 33.8906 623.078 31.4844C623.891 29.0781 625.057 26.9688 626.578 25.1562H630.484C629.016 27.1667 627.906 29.375 627.156 31.7812C626.406 34.1875 626.031 36.6615 626.031 39.2031C626.031 41.7552 626.411 44.224 627.172 46.6094C627.943 48.9844 629.036 51.1354 630.453 53.0625H626.578C625.047 51.2917 623.88 49.224 623.078 46.8594C622.276 44.4948 621.875 41.9531 621.875 39.2344ZM646.125 42.8125C646.125 44.6042 645.5 45.9688 644.25 46.9062C643.01 47.8438 641.151 48.3125 638.672 48.3125C637.401 48.3125 636.318 48.224 635.422 48.0469C634.526 47.8802 633.688 47.6302 632.906 47.2969V43.3594C633.792 43.776 634.786 44.125 635.891 44.4062C637.005 44.6875 637.984 44.8281 638.828 44.8281C640.557 44.8281 641.422 44.3281 641.422 43.3281C641.422 42.9531 641.307 42.651 641.078 42.4219C640.849 42.1823 640.453 41.9167 639.891 41.625C639.328 41.3229 638.578 40.974 637.641 40.5781C636.297 40.0156 635.307 39.4948 634.672 39.0156C634.047 38.5365 633.589 37.9896 633.297 37.375C633.016 36.75 632.875 35.9844 632.875 35.0781C632.875 33.526 633.474 32.3281 634.672 31.4844C635.88 30.6302 637.589 30.2031 639.797 30.2031C641.901 30.2031 643.948 30.6615 645.938 31.5781L644.5 35.0156C643.625 34.6406 642.807 34.3333 642.047 34.0938C641.286 33.8542 640.51 33.7344 639.719 33.7344C638.312 33.7344 637.609 34.1146 637.609 34.875C637.609 35.3021 637.833 35.6719 638.281 35.9844C638.74 36.2969 639.734 36.7604 641.266 37.375C642.63 37.9271 643.63 38.4427 644.266 38.9219C644.901 39.401 645.37 39.9531 645.672 40.5781C645.974 41.2031 646.125 41.9479 646.125 42.8125ZM660.938 48L660.016 45.625H659.891C659.089 46.6354 658.26 47.3385 657.406 47.7344C656.562 48.1198 655.458 48.3125 654.094 48.3125C652.417 48.3125 651.094 47.8333 650.125 46.875C649.167 45.9167 648.688 44.5521 648.688 42.7812C648.688 40.9271 649.333 39.5625 650.625 38.6875C651.927 37.8021 653.885 37.3125 656.5 37.2188L659.531 37.125V36.3594C659.531 34.5885 658.625 33.7031 656.812 33.7031C655.417 33.7031 653.776 34.125 651.891 34.9688L650.312 31.75C652.323 30.6979 654.552 30.1719 657 30.1719C659.344 30.1719 661.141 30.6823 662.391 31.7031C663.641 32.724 664.266 34.276 664.266 36.3594V48H660.938ZM659.531 39.9062L657.688 39.9688C656.302 40.0104 655.271 40.2604 654.594 40.7188C653.917 41.1771 653.578 41.875 653.578 42.8125C653.578 44.1562 654.349 44.8281 655.891 44.8281C656.995 44.8281 657.875 44.5104 658.531 43.875C659.198 43.2396 659.531 42.3958 659.531 41.3438V39.9062ZM673.953 48H669.188V23.6875H673.953V48ZM686.203 33.5938C685.193 33.5938 684.401 33.9167 683.828 34.5625C683.255 35.1979 682.927 36.1042 682.844 37.2812H689.531C689.51 36.1042 689.203 35.1979 688.609 34.5625C688.016 33.9167 687.214 33.5938 686.203 33.5938ZM686.875 48.3125C684.062 48.3125 681.865 47.5365 680.281 45.9844C678.698 44.4323 677.906 42.2344 677.906 39.3906C677.906 36.4635 678.635 34.2031 680.094 32.6094C681.562 31.0052 683.589 30.2031 686.172 30.2031C688.641 30.2031 690.562 30.9062 691.938 32.3125C693.312 33.7188 694 35.6615 694 38.1406V40.4531H682.734C682.786 41.8073 683.188 42.8646 683.938 43.625C684.688 44.3854 685.74 44.7656 687.094 44.7656C688.146 44.7656 689.141 44.6562 690.078 44.4375C691.016 44.2188 691.995 43.8698 693.016 43.3906V47.0781C692.182 47.4948 691.292 47.8021 690.344 48C689.396 48.2083 688.24 48.3125 686.875 48.3125ZM704.938 39.2344C704.938 41.974 704.531 44.526 703.719 46.8906C702.917 49.2552 701.755 51.3125 700.234 53.0625H696.359C697.766 51.1458 698.854 49 699.625 46.625C700.396 44.2396 700.781 41.7656 700.781 39.2031C700.781 36.6615 700.406 34.1875 699.656 31.7812C698.906 29.375 697.797 27.1667 696.328 25.1562H700.234C701.766 26.9792 702.932 29.099 703.734 31.5156C704.536 33.9219 704.938 36.4948 704.938 39.2344Z" fill="white"/>
</g>
<defs>
<clipPath id="clip0_187_1937">
<rect width="1073" height="73" fill="white"/>
</clipPath>
</defs>
</svg>

<svg width="1073" height="73" fill="none" xmlns="http://www.w3.org/2000/svg"><g clip-path="url(#clip0_187_1937)"><path fill="#C01818" fill-opacity=".8" d="M0 0h1073v73H0z"/><path d="M382.359 30.266c0 1.427-.432 2.64-1.297 3.64-.864 1-2.078 1.688-3.64 2.063v.093c1.844.23 3.239.792 4.187 1.688.948.885 1.422 2.083 1.422 3.594 0 2.198-.797 3.911-2.39 5.14-1.594 1.22-3.87 1.828-6.829 1.828-2.479 0-4.677-.411-6.593-1.234v-4.11c.885.449 1.859.813 2.922 1.094 1.062.282 2.114.422 3.156.422 1.594 0 2.771-.27 3.531-.812.761-.542 1.141-1.412 1.141-2.61 0-1.072-.438-1.833-1.313-2.28-.875-.449-2.271-.673-4.187-.673h-1.735v-3.703h1.766c1.771 0 3.062-.229 3.875-.687.823-.469 1.234-1.266 1.234-2.39 0-1.73-1.083-2.595-3.25-2.595-.75 0-1.515.125-2.297.375-.77.25-1.63.683-2.578 1.297l-2.234-3.328c2.083-1.5 4.568-2.25 7.453-2.25 2.365 0 4.229.48 5.594 1.438 1.375.958 2.062 2.291 2.062 4zM400.234 48h-4.765V25.156h13.093v3.969h-8.328v5.89h7.75v3.954h-7.75V48zm17.188 0h-4.766V23.687h4.766V48zm8.812-8.766c0 1.73.282 3.037.844 3.922.573.886 1.5 1.328 2.781 1.328 1.271 0 2.183-.437 2.735-1.312.562-.886.844-2.198.844-3.938 0-1.729-.282-3.026-.844-3.89-.563-.865-1.485-1.297-2.766-1.297-1.271 0-2.187.432-2.75 1.297-.562.854-.844 2.15-.844 3.89zm12.078 0c0 2.844-.75 5.068-2.25 6.672s-3.588 2.407-6.265 2.407c-1.677 0-3.156-.365-4.438-1.094-1.281-.74-2.265-1.797-2.953-3.172-.687-1.375-1.031-2.98-1.031-4.813 0-2.854.745-5.073 2.234-6.656 1.49-1.583 3.584-2.375 6.282-2.375 1.677 0 3.156.365 4.437 1.094 1.281.729 2.266 1.776 2.953 3.14.688 1.365 1.031 2.964 1.031 4.797zm7.735 0c0 1.73.281 3.037.844 3.922.573.886 1.5 1.328 2.781 1.328 1.271 0 2.182-.437 2.734-1.312.563-.886.844-2.198.844-3.938 0-1.729-.281-3.026-.844-3.89-.562-.865-1.484-1.297-2.765-1.297-1.271 0-2.188.432-2.75 1.297-.563.854-.844 2.15-.844 3.89zm12.078 0c0 2.844-.75 5.068-2.25 6.672s-3.589 2.407-6.266 2.407c-1.677 0-3.156-.365-4.437-1.094-1.281-.74-2.266-1.797-2.953-3.172-.688-1.375-1.031-2.98-1.031-4.813 0-2.854.744-5.073 2.234-6.656 1.489-1.583 3.583-2.375 6.281-2.375 1.677 0 3.156.365 4.438 1.094 1.281.729 2.265 1.776 2.953 3.14.687 1.365 1.031 2.964 1.031 4.797zm13.687-9.03c.646 0 1.183.046 1.61.14l-.36 4.468c-.385-.104-.854-.156-1.406-.156-1.521 0-2.708.39-3.562 1.172-.844.781-1.266 1.875-1.266 3.281V48h-4.766V30.531h3.61l.703 2.938h.234a6.526 6.526 0 012.188-2.36 5.415 5.415 0 013.015-.906zm11.547 11.171v-3.906h8.391v3.906h-8.391zm41.282-4.828c0 3.781-.938 6.687-2.813 8.719-1.875 2.03-4.562 3.047-8.062 3.047-3.5 0-6.188-1.016-8.063-3.047-1.875-2.032-2.812-4.948-2.812-8.75 0-3.802.937-6.703 2.812-8.703 1.886-2.01 4.583-3.016 8.094-3.016 3.51 0 6.193 1.01 8.047 3.031 1.864 2.021 2.797 4.927 2.797 8.719zm-16.672 0c0 2.552.484 4.474 1.453 5.766.969 1.291 2.417 1.937 4.344 1.937 3.864 0 5.796-2.568 5.796-7.703 0-5.146-1.921-7.719-5.765-7.719-1.927 0-3.38.651-4.359 1.953-.98 1.292-1.469 3.214-1.469 5.766zm30.687-2.438h-4.125V48h-4.765V34.11h-2.625v-2.297l2.625-1.282V29.25c0-1.99.489-3.443 1.468-4.36.98-.916 2.547-1.374 4.704-1.374 1.645 0 3.109.244 4.39.734l-1.219 3.5c-.958-.302-1.843-.453-2.656-.453-.677 0-1.167.203-1.469.61-.302.395-.453.905-.453 1.53v1.094h4.125v3.578zm12.391 0h-4.125V48h-4.766V34.11h-2.625v-2.297l2.625-1.282V29.25c0-1.99.49-3.443 1.469-4.36.979-.916 2.547-1.374 4.703-1.374 1.646 0 3.11.244 4.391.734l-1.219 3.5c-.958-.302-1.844-.453-2.656-.453-.677 0-1.167.203-1.469.61-.302.395-.453.905-.453 1.53v1.094h4.125v3.578zm2.484-8.093c0-1.552.865-2.328 2.594-2.328 1.729 0 2.594.776 2.594 2.328 0 .74-.219 1.317-.657 1.734-.427.406-1.072.61-1.937.61-1.729 0-2.594-.782-2.594-2.344zM558.5 48h-4.766V30.531h4.766V48zm12.094.313c-5.438 0-8.156-2.985-8.156-8.954 0-2.968.739-5.234 2.218-6.797 1.479-1.572 3.599-2.359 6.36-2.359 2.02 0 3.833.396 5.437 1.188l-1.406 3.687a22.2 22.2 0 00-2.094-.734 6.581 6.581 0 00-1.937-.297c-2.48 0-3.719 1.76-3.719 5.281 0 3.417 1.239 5.125 3.719 5.125.916 0 1.765-.12 2.546-.36a9.394 9.394 0 002.344-1.156v4.079c-.771.49-1.552.828-2.344 1.015-.781.188-1.77.282-2.968.282zm16.609-14.72c-1.01 0-1.802.324-2.375.97-.573.635-.901 1.541-.984 2.718h6.687c-.021-1.177-.328-2.083-.922-2.718-.593-.646-1.395-.97-2.406-.97zm.672 14.72c-2.813 0-5.01-.777-6.594-2.329-1.583-1.552-2.375-3.75-2.375-6.593 0-2.927.729-5.188 2.188-6.782 1.468-1.604 3.495-2.406 6.078-2.406 2.469 0 4.39.703 5.766 2.11C594.312 33.718 595 35.66 595 38.14v2.312h-11.266c.052 1.354.454 2.412 1.204 3.172.75.76 1.802 1.14 3.156 1.14a13.1 13.1 0 002.984-.328c.938-.218 1.917-.567 2.938-1.046v3.687a10.95 10.95 0 01-2.672.922c-.948.208-2.104.313-3.469.313zm23.187-5.5c0 1.791-.624 3.156-1.874 4.093-1.24.938-3.099 1.407-5.579 1.407-1.27 0-2.354-.089-3.25-.266a11.976 11.976 0 01-2.515-.75v-3.938c.885.417 1.88.766 2.984 1.047 1.115.282 2.094.422 2.938.422 1.729 0 2.593-.5 2.593-1.5 0-.375-.114-.677-.343-.906-.23-.24-.625-.505-1.188-.797a27.547 27.547 0 00-2.25-1.047c-1.344-.562-2.333-1.083-2.969-1.562-.625-.48-1.083-1.026-1.375-1.641-.281-.625-.422-1.39-.422-2.297 0-1.552.599-2.75 1.797-3.594 1.209-.854 2.917-1.28 5.125-1.28 2.105 0 4.151.457 6.141 1.374l-1.437 3.438a26.473 26.473 0 00-2.454-.922 7.698 7.698 0 00-2.328-.36c-1.406 0-2.109.38-2.109 1.141 0 .427.224.797.672 1.11.458.312 1.453.775 2.984 1.39 1.365.552 2.365 1.068 3 1.547.636.479 1.104 1.031 1.406 1.656.302.625.453 1.37.453 2.234zm10.813-3.579c0-2.76.401-5.343 1.203-7.75.813-2.406 1.979-4.515 3.5-6.328h3.906a22.519 22.519 0 00-3.328 6.625 24.8 24.8 0 00-1.125 7.422c0 2.552.38 5.021 1.141 7.406.771 2.375 1.864 4.526 3.281 6.453h-3.875c-1.531-1.77-2.698-3.838-3.5-6.203-.802-2.364-1.203-4.906-1.203-7.625zm24.25 3.578c0 1.792-.625 3.157-1.875 4.094-1.24.938-3.099 1.407-5.578 1.407-1.271 0-2.354-.089-3.25-.266a11.985 11.985 0 01-2.516-.75v-3.938c.886.417 1.88.766 2.985 1.047 1.114.282 2.093.422 2.937.422 1.729 0 2.594-.5 2.594-1.5 0-.375-.115-.677-.344-.906-.229-.24-.625-.505-1.187-.797a27.87 27.87 0 00-2.25-1.047c-1.344-.562-2.334-1.083-2.969-1.562-.625-.48-1.083-1.026-1.375-1.641-.281-.625-.422-1.39-.422-2.297 0-1.552.599-2.75 1.797-3.594 1.208-.854 2.917-1.28 5.125-1.28 2.104 0 4.151.457 6.141 1.374l-1.438 3.438a26.46 26.46 0 00-2.453-.922 7.708 7.708 0 00-2.328-.36c-1.407 0-2.11.38-2.11 1.141 0 .427.224.797.672 1.11.459.312 1.453.775 2.985 1.39 1.364.552 2.364 1.068 3 1.547.635.479 1.104 1.031 1.406 1.656.302.625.453 1.37.453 2.234zM660.938 48l-.922-2.375h-.125c-.802 1.01-1.631 1.714-2.485 2.11-.844.385-1.948.578-3.312.578-1.677 0-3-.48-3.969-1.438-.958-.958-1.437-2.323-1.437-4.094 0-1.854.645-3.218 1.937-4.093 1.302-.886 3.26-1.376 5.875-1.47l3.031-.093v-.766c0-1.77-.906-2.656-2.719-2.656-1.395 0-3.036.422-4.921 1.266l-1.579-3.219c2.011-1.052 4.24-1.578 6.688-1.578 2.344 0 4.141.51 5.391 1.531s1.875 2.573 1.875 4.656V48h-3.328zm-1.407-8.094l-1.843.063c-1.386.041-2.417.291-3.094.75-.677.458-1.016 1.156-1.016 2.093 0 1.344.771 2.016 2.313 2.016 1.104 0 1.984-.318 2.64-.953.667-.635 1-1.48 1-2.531v-1.438zM673.953 48h-4.765V23.687h4.765V48zm12.25-14.406c-1.01 0-1.802.323-2.375.968-.573.636-.901 1.542-.984 2.72h6.687c-.021-1.178-.328-2.084-.922-2.72-.593-.645-1.395-.968-2.406-.968zm.672 14.718c-2.813 0-5.01-.776-6.594-2.328-1.583-1.552-2.375-3.75-2.375-6.593 0-2.927.729-5.188 2.188-6.782 1.468-1.604 3.495-2.406 6.078-2.406 2.469 0 4.39.703 5.766 2.11C693.312 33.718 694 35.66 694 38.14v2.312h-11.266c.052 1.354.454 2.412 1.204 3.172.75.76 1.802 1.14 3.156 1.14a13.1 13.1 0 002.984-.328c.938-.218 1.917-.567 2.938-1.046v3.687a10.95 10.95 0 01-2.672.922c-.948.208-2.104.313-3.469.313zm18.063-9.078c0 2.74-.407 5.292-1.219 7.657-.802 2.364-1.964 4.422-3.485 6.172h-3.875c1.407-1.917 2.495-4.063 3.266-6.438a23.982 23.982 0 001.156-7.422 24.8 24.8 0 00-1.125-7.422 22.494 22.494 0 00-3.328-6.625h3.906c1.532 1.823 2.698 3.943 3.5 6.36.802 2.406 1.204 4.979 1.204 7.718z" fill="#fff"/></g><defs><clipPath id="clip0_187_1937"><path fill="#fff" d="M0 0h1073v73H0z"/></clipPath></defs></svg>
